X:1
T:Title
%%score { ( 1 3 ) | ( 2 4 ) }
L:1/8
M:9/8
K:Eb
V:1 treble nm="Grand Piano"
V:3 treble 
V:2 bass 
V:4 bass 
V:1
 z3 z3[Q:1/4=108] B2 B | B3 G3 D-[DG][A,DF] | [G,E]6 [B,GB]2 [B,GB] | [Ge]3 [GB]3 [Ac][GB][EG] | %4
 [EG] [DF]2- [DF]3 [DB]2 [DB] | [EB]3 [B,EG]3 D-[DG][A,DF] | E6 G2 G | F3 B3 =AeA | %8
 [Ec] [DB]2- [DB]3 [DB]2 [DB] | [FA]3 [FA]3 [FA][Bd][Ac] | [GB]6 [GB]2 [GB] | %11
 [Ge]3 [EGB]3 [EG][FA][B,EG] | [B,DF]6 [DB]2 [FA] | [EG]3 [GB]3 [Ge]2 B | c6 c2 c | c3 c3 f2 c | %16
 d6 c2 B | e3 B3 G2 E | c6 [CEA]2 [Ec] | [EB]3 [B,EG]3 D-[DG]F |[M:3/4] E6 |] %21
V:2
 z3 z3 [E,G,E]2 [E,G,E] | [E,G,E]3 [E,B,E]3 z B,B,, | E,6 E,2 E, | [E,B,]3 [E,E]3 [E,E]2 [E,B,] | %4
 [B,,B,] [B,,B,]2- [B,,B,]3 [B,,F,]2 [C,A,] | [E,G,]3 E,3 z B,B,, | [E,G,]6 [E,B,E]2 [E,B,E] | %7
 [F,B,D]3 [F,DF]3 [F,CF]2 [F,CE] | [B,,B,] [B,,B,]2- [B,,B,]3 [B,,F,]2 [B,,F,] | %9
 [B,,B,]3 [B,,B,]3 [B,,B,]2 [B,,B,] | [E,B,]6 [E,B,]2 [E,B,] | [E,B,]3 E,3 E,D,E, | %12
 B,,6 [B,,F,]2 [B,,B,] | [E,B,]3 [E,B,]3 [E,B,]2[K:treble] [G,_DE] | [A,CE]6 [A,E]2 [A,E] | %15
 [F,=A,F]3 [F,A,F]3 [F,A,F]2 [F,A,F] | [B,F]6 [A,B,F]2 [A,B,F] | [G,B,E]3 [G,B,E]3 [G,_DE]2 [G,D] | %18
 [A,CE]6 A,,2 [A,,A,] | [B,,G,]3 B,,3 z B,[B,,A,B,] |[M:3/4] [E,G,B,]6 |] %21
V:3
 x9 | z3 z3 .[A,F]3 | x9 | x9 | x9 | z3 z3 .[A,F]3 | x9 | x9 | x9 | x9 | x9 | z3 z3 .B,3 | x9 | %13
 x9 | x9 | x9 | x9 | x9 | x9 | z3 z3 .[A,F]3 |[M:3/4] x6 |] %21
V:4
 x9 | z3 z3 .B,,3 | x9 | x9 | x9 | z3 z3 .B,,3 | x9 | x9 | x9 | x9 | x9 | x9 | x9 | %13
 x8[K:treble] x | x9 | x9 | x9 | x9 | x9 | z3 z3 .B,,3 |[M:3/4] x6 |] %21

